X:3458
T:Cortexando su l'horru (XA 27)
C:Tradicional
S:Música Tradicional Asturiana, (C) Tello & Tito. Asturies, 2001.
S:http://pagina.de/MusTradAst <telloytito@asturies.org>
A:Asturies
Z:Métodu de Xuacu Amieva 27
M:2/4
L:1/8
Q:1/4=140
K:C
|CD EF|G2 F2|EF F2|EF D2|D2 CD|EF G2|E2 DE|FE DE|[1 C2 C2 :|
[M:3/8]
[Q:3/8=50]
[2 C3-|C-C/C/D/E/|FFF|FFF|E>DC-|C3|
|C/D/E/F/E/D/|C3|C/D/E/F/E/D/|C3|C/D/E/F/E/F/|D/E/D/E/D/E/|
|C3-|C-C/C/D/E/|FFF|A>GF|E2 (3D/E/D/|C3|
|C/D/E/F/E/D/|CGG|C/D/E/F/E/D/|C3|C/D/E/F/E/F/|D/E/D/E/D/E/|
|C3-|C z2|


